X:1
T:ink
%%score { 1 | 2 }
L:1/8
Q:1/4=100
M:4/4
K:Emin
V:1 treble nm="Piano" snm="Pno."
V:2 bass 
V:1
|: B,^DFG BGEB, | FD_B,=F ^CA,^DE :| B,4 z4 |]
V:2
|: E,,3 E,- E,4 | _B,,3 A,,- A,,2 G,,=B,, :| E,,4 z4 |]